public/cloud-icons/azure/networking/route-table.svg

<?xml version="1.0" encoding="UTF-8" standalone="no"?>
<!-- Generated by Microsoft Visio, SVG Export Route Table.svg Page-1 -->

<svg
   xmlns:dc="http://purl.org/dc/elements/1.1/"
   xmlns:cc="http://creativecommons.org/ns#"
   xmlns:rdf="http://www.w3.org/1999/02/22-rdf-syntax-ns#"
   xmlns:svg="http://www.w3.org/2000/svg"
   xmlns="http://www.w3.org/2000/svg"
   xmlns:sodipodi="http://sodipodi.sourceforge.net/DTD/sodipodi-0.dtd"
   xmlns:inkscape="http://www.inkscape.org/namespaces/inkscape"
   width="0.78745741in"
   height="0.74791694in"
   viewBox="0 0 56.696841 53.849965"
   xml:space="preserve"
   class="st5"
   version="1.1"
   id="svg65"
   sodipodi:docname="Route Table.svg"
   style="font-size:12px;overflow:visible;color-interpolation-filters:sRGB;fill:none;fill-rule:evenodd;stroke-linecap:square;stroke-miterlimit:3"
   inkscape:version="0.92.5 (2060ec1f9f, 2020-04-08)"><metadata
   id="metadata69"><rdf:RDF><cc:Work
       rdf:about=""><dc:format>image/svg+xml</dc:format><dc:type
         rdf:resource="http://purl.org/dc/dcmitype/StillImage" /></cc:Work></rdf:RDF></metadata><sodipodi:namedview
   pagecolor="#ffffff"
   bordercolor="#666666"
   borderopacity="1"
   objecttolerance="10"
   gridtolerance="10"
   guidetolerance="10"
   inkscape:pageopacity="0"
   inkscape:pageshadow="2"
   inkscape:window-width="640"
   inkscape:window-height="480"
   id="namedview67"
   showgrid="false"
   inkscape:zoom="1.4523062"
   inkscape:cx="37.797354"
   inkscape:cy="35.889912"
   inkscape:window-x="0"
   inkscape:window-y="0"
   inkscape:window-maximized="0"
   inkscape:current-layer="svg65" />
	<style
   type="text/css"
   id="style2">
	<![CDATA[
		.st1 {fill:url(#grad0-6);stroke:none;stroke-linecap:butt;stroke-width:34}
		.st2 {fill:#ffffff;fill-opacity:0.8;stroke:none;stroke-linecap:butt;stroke-width:34}
		.st3 {fill:url(#grad0-12);stroke:none;stroke-linecap:butt;stroke-width:34}
		.st4 {fill:#0078d4;stroke:none;stroke-linecap:butt;stroke-width:34}
		.st5 {fill:none;fill-rule:evenodd;font-size:12px;overflow:visible;stroke-linecap:square;stroke-miterlimit:3}
	]]>
	</style>

	<defs
   id="Patterns_And_Gradients">
		<linearGradient
   id="grad0-6"
   x1="-0.016748099"
   y1="122.10339"
   x2="35.699472"
   y2="122.10339"
   gradientTransform="scale(1.2949771,0.77221441)"
   gradientUnits="userSpaceOnUse">
			<stop
   offset="0.22"
   stop-color="#32d4f5"
   stop-opacity="1"
   id="stop4" />
			<stop
   offset="0.47"
   stop-color="#31d1f3"
   stop-opacity="1"
   id="stop6" />
			<stop
   offset="0.63"
   stop-color="#2ec9eb"
   stop-opacity="1"
   id="stop8" />
			<stop
   offset="0.77"
   stop-color="#29bade"
   stop-opacity="1"
   id="stop10" />
			<stop
   offset="0.89"
   stop-color="#22a5cb"
   stop-opacity="1"
   id="stop12" />
			<stop
   offset="1"
   stop-color="#198ab3"
   stop-opacity="1"
   id="stop14" />
			<stop
   offset="1"
   stop-color="#198ab3"
   stop-opacity="1"
   id="stop16" />
		</linearGradient>
		<linearGradient
   id="grad0-12"
   x1="0"
   y1="97.145209"
   x2="25.718861"
   y2="97.145209"
   gradientTransform="scale(1.0081162,0.99194911)"
   gradientUnits="userSpaceOnUse">
			<stop
   offset="0.22"
   stop-color="#32d4f5"
   stop-opacity="1"
   id="stop19" />
			<stop
   offset="0.47"
   stop-color="#31d1f3"
   stop-opacity="1"
   id="stop21" />
			<stop
   offset="0.63"
   stop-color="#2ec9eb"
   stop-opacity="1"
   id="stop23" />
			<stop
   offset="0.77"
   stop-color="#29bade"
   stop-opacity="1"
   id="stop25" />
			<stop
   offset="0.89"
   stop-color="#22a5cb"
   stop-opacity="1"
   id="stop27" />
			<stop
   offset="1"
   stop-color="#198ab3"
   stop-opacity="1"
   id="stop29" />
			<stop
   offset="1"
   stop-color="#198ab3"
   stop-opacity="1"
   id="stop31" />
		</linearGradient>
	</defs>
	<g
   id="g63"
   transform="translate(-33.99854,-34.00493)">
		<title
   id="title35">Page-1</title>
		<g
   id="group18814-1"
   transform="translate(34,-34.0157)">
			<title
   id="title37">Route Table.18814</title>
			<g
   id="group18815-2">
				<title
   id="title39">Icon-networking-82</title>
				<g
   id="shape18816-3"
   transform="translate(10.4654)">
					<title
   id="title41">Sheet.18816</title>
					<path
   d="m 42.11,121.87 a 4.05328,3.98828 -180 0 0 4.12,-3.85 v -0.66 C 44.59,104.64 37.22,94.29 23.15,94.29 9.08,94.29 1.44,103.05 0,117.36 a 4.15378,4.08716 -180 0 0 3.68,4.48 h 38.43 z"
   class="st1"
   id="path43"
   inkscape:connector-curvature="0"
   style="fill:url(#grad0-6);stroke:none;stroke-width:34;stroke-linecap:butt" />
				</g>
				<g
   id="shape18817-7"
   transform="translate(26.578,-8.73466)">
					<title
   id="title46">Sheet.18817</title>
					<path
   d="M 7.03,106.02 A 12.9303,12.7229 0 0 1 0,104.01 l 6.97,17.86 6.9,-17.76 a 12.8298,12.6241 0 0 1 -6.84,1.91 z"
   class="st2"
   id="path48"
   inkscape:connector-curvature="0"
   style="fill:#ffffff;fill-opacity:0.8;stroke:none;stroke-width:34;stroke-linecap:butt" />
				</g>
				<g
   id="shape18818-9"
   transform="translate(20.6489,-24.5889)">
					<title
   id="title51">Sheet.18818</title>
					<ellipse
   cx="12.9638"
   cy="109.119"
   rx="12.9638"
   ry="12.7559"
   class="st3"
   id="ellipse53"
   style="fill:url(#grad0-12);stroke:none;stroke-width:34;stroke-linecap:butt" />
				</g>
				<g
   id="shape18819-13"
   transform="translate(0,-26.6984)">
					<title
   id="title56">Sheet.18819</title>
					<path
   d="M 18.3,111.36 V 95.28 A 0.535971,0.527376 -180 0 0 17.764029,94.719663 L 13.51,94.72 a 0.569469,0.560337 -180 0 0 -0.602967,0.560337 L 12.91,110.8 a 0.602967,0.593298 0 0 1 -0.569469,0.56034 L 8.59,111.36 A 0.401978,0.395532 0 0 1 8.255018,110.96447 L 8.25,106.65 A 0.36848,0.362571 -180 0 0 7.613534,106.38631 L 0.18,113.63 a 0.535971,0.527376 -180 0 0 0,0.79106 L 7.55,121.64 a 0.37075755,0.36481154 -180 0 0 0.703462,-0.23073 L 8.25,117.06 a 0.36848,0.362571 0 0 1 0.334982,-0.36257 L 17.77,116.7 a 0.569469,0.560337 -180 0 0 0.535971,-0.56034 z"
   class="st4"
   id="path58"
   inkscape:connector-curvature="0"
   style="fill:#0078d4;stroke:none;stroke-width:34;stroke-linecap:butt" />
				</g>
			</g>
		</g>
	</g>
</svg>

<svg xmlns="http://www.w3.org/2000/svg" xml:space="preserve" width="75.596" height="71.8" style="font-size:12px;overflow:visible;color-interpolation-filters:sRGB;fill-rule:evenodd;stroke-linecap:square;stroke-miterlimit:3" viewBox="0 0 56.697 53.85"><defs><linearGradient id="a" x1="-.017" x2="35.699" y1="122.103" y2="122.103" gradientTransform="scale(1.29498 .77221)" gradientUnits="userSpaceOnUse"><stop offset=".22" stop-color="#32d4f5"/><stop offset=".47" stop-color="#31d1f3"/><stop offset=".63" stop-color="#2ec9eb"/><stop offset=".77" stop-color="#29bade"/><stop offset=".89" stop-color="#22a5cb"/><stop offset="1" stop-color="#198ab3"/><stop offset="1" stop-color="#198ab3"/></linearGradient><linearGradient id="b" x1="0" x2="25.719" y1="97.145" y2="97.145" gradientTransform="scale(1.00812 .99195)" gradientUnits="userSpaceOnUse"><stop offset=".22" stop-color="#32d4f5"/><stop offset=".47" stop-color="#31d1f3"/><stop offset=".63" stop-color="#2ec9eb"/><stop offset=".77" stop-color="#29bade"/><stop offset=".89" stop-color="#22a5cb"/><stop offset="1" stop-color="#198ab3"/><stop offset="1" stop-color="#198ab3"/></linearGradient></defs><g transform="translate(-33.999 -34.005)"><title>Page-1</title><g transform="translate(34 -34.016)"><title>Route Table.18814</title><title>Icon-networking-82</title><g transform="translate(10.465)"><title>Sheet.18816</title><path d="M42.11 121.87a4.053 3.988-180 0 0 4.12-3.85v-.66c-1.64-12.72-9.01-23.07-23.08-23.07S1.44 103.05 0 117.36a4.154 4.087-180 0 0 3.68 4.48h38.43z" style="fill:url(#a);stroke:none;stroke-width:34;stroke-linecap:butt"/></g><g transform="translate(26.578 -8.735)"><title>Sheet.18817</title><path d="M7.03 106.02A12.93 12.723 0 0 1 0 104.01l6.97 17.86 6.9-17.76a12.83 12.624 0 0 1-6.84 1.91" style="fill:#fff;fill-opacity:.8;stroke:none;stroke-width:34;stroke-linecap:butt"/></g><g transform="translate(20.649 -24.589)"><title>Sheet.18818</title><ellipse cx="12.964" cy="109.119" rx="12.964" ry="12.756" style="fill:url(#b);stroke:none;stroke-width:34;stroke-linecap:butt"/></g><g transform="translate(0 -26.698)"><title>Sheet.18819</title><path d="M18.3 111.36V95.28a.536.527-180 0 0-.536-.56H13.51a.57.56-180 0 0-.603.56l.003 15.52a.603.593 0 0 1-.57.56H8.59a.402.396 0 0 1-.335-.396l-.005-4.314a.368.363-180 0 0-.636-.264L.18 113.63a.536.527-180 0 0 0 .791l7.37 7.219a.37.365-180 0 0 .703-.23l-.003-4.35a.368.363 0 0 1 .335-.363l9.185.003a.57.56-180 0 0 .536-.56z" style="fill:#0078d4;stroke:none;stroke-width:34;stroke-linecap:butt"/></g></g></g></svg>
